toolkits/global/packages/global-context/img/icons/citation.svg

<svg height="24" viewBox="0 0 24 24" width="24" xmlns="http://www.w3.org/2000/svg"><path d="m11.6359347 9c2.209139 0 4 1.790861 4 4 0 1.4073212-.7267788 2.6448941-1.8254829 3.3578652 1.6243528.6765659 2.8759534 2.0099488 3.4614177 3.6422777l-1.0763019.0000112c-.5308993-1.2082915-1.5109044-2.1948928-2.7696112-2.719162l-.7900217-.3290552v-1.0240018l.6301658-.4089272c.8482885-.5504714 1.3698342-1.489533 1.3698342-2.5190079 0-1.6568542-1.3431457-3-3-3-1.65685422 0-2.99999997 1.3431458-2.99999997 3 0 1.0294749.52154569 1.9685365 1.36983417 2.5190079l.6301658.4089272v1.0240018l-.79002168.3290552c-1.25870676.5242692-2.23871183 1.5108705-2.7696112 2.719162l-1.07630182-.0000112c.58546427-1.6323289 1.83706484-2.9657118 3.4614176-3.6422777-1.09870405-.7129711-1.82548287-1.950544-1.82548287-3.3578652 0-2.209139 1.790861-4 3.99999997-4zm7.368976-5c1.1018574 0 1.9950893.89354265 1.9950893 2.00276013v5.99447977c0 1.1060938-.8926228 2.0027601-1.9950893 2.0027601h-3.0049107v-1h3.0049107c.5490631 0 .9950893-.4478356.9950893-1.0027601v-5.99447977c0-.55647074-.4450595-1.00276013-.9950893-1.00276013h-14.00982141c-.54906309 0-.99508929.44783555-.99508929 1.00276013v5.99723987c0 .6666667.33333333 1 1 1h2v1h-2c-1 0-2-1-2-2v-5.99723987c0-1.10609388.8926228-2.00276013 1.99508929-2.00276013zm-8.5049107 3c.2761424 0 .5.22385763.5.5s-.2238576.5-.5.5h-4c-.27614237 0-.5-.22385763-.5-.5s.22385763-.5.5-.5zm3 0c.2761424 0 .5.22385763.5.5s-.2238576.5-.5.5h-1c-.2761424 0-.5-.22385763-.5-.5s.2238576-.5.5-.5zm4 0c.2761424 0 .5.22385763.5.5s-.2238576.5-.5.5h-2c-.2761424 0-.5-.22385763-.5-.5s.2238576-.5.5-.5z" fill="#666" fill-rule="evenodd"/></svg>

<?xml version="1.0" encoding="UTF-8"?>
<svg width="24px" height="24px" viewBox="0 0 24 24" version="1.1" xmlns="http://www.w3.org/2000/svg" xmlns:xlink="http://www.w3.org/1999/xlink">
    <!-- Generator: Sketch 63.1 (92452) - https://sketch.com -->
    <title>icon-icon / citation</title>
    <desc>Created with Sketch.</desc>
    <g id="icon-/-citation" stroke="none" stroke-width="1" fill="none" fill-rule="evenodd">
        <path d="M11.6359347,9 C13.8450737,9 15.6359347,10.790861 15.6359347,13 C15.6359347,14.4073212 14.9091559,15.6448941 13.8104518,16.3578652 C15.4348046,17.0344311 16.6864052,18.367814 17.2718695,20.0001429 L16.1955676,20.0001541 C15.6646683,18.7918626 14.6846632,17.8052613 13.4259564,17.2809921 L12.6359347,16.9519369 L12.6359347,15.9279351 L13.2661005,15.5190079 C14.114389,14.9685365 14.6359347,14.0294749 14.6359347,13 C14.6359347,11.3431458 13.292789,10 11.6359347,10 C9.97908048,10 8.63593473,11.3431458 8.63593473,13 C8.63593473,14.0294749 9.15748042,14.9685365 10.0057689,15.5190079 L10.6359347,15.9279351 L10.6359347,16.9519369 L9.84591302,17.2809921 C8.58720626,17.8052613 7.60720119,18.7918626 7.07630182,20.0001541 L6,20.0001429 C6.58546427,18.367814 7.83706484,17.0344311 9.4614176,16.3578652 C8.36271355,15.6448941 7.63593473,14.4073212 7.63593473,13 C7.63593473,10.790861 9.42679573,9 11.6359347,9 Z M19.0049107,4 C20.1067681,4 21,4.89354265 21,6.00276013 L21,11.9972399 C21,13.1033337 20.1073772,14 19.0049107,14 L16,14 L16,13 L19.0049107,13 C19.5539738,13 20,12.5521644 20,11.9972399 L20,6.00276013 C20,5.44628939 19.5549405,5 19.0049107,5 L4.99508929,5 C4.4460262,5 4,5.44783555 4,6.00276013 L4,12 C4,12.6666667 4.33333333,13 5,13 L7,13 L7,14 L5,14 C4,14 3,13 3,12 L3,6.00276013 C3,4.89666625 3.8926228,4 4.99508929,4 L19.0049107,4 Z M10.5,7 C10.7761424,7 11,7.22385763 11,7.5 C11,7.77614237 10.7761424,8 10.5,8 L6.5,8 C6.22385763,8 6,7.77614237 6,7.5 C6,7.22385763 6.22385763,7 6.5,7 L10.5,7 Z M13.5,7 C13.7761424,7 14,7.22385763 14,7.5 C14,7.77614237 13.7761424,8 13.5,8 L12.5,8 C12.2238576,8 12,7.77614237 12,7.5 C12,7.22385763 12.2238576,7 12.5,7 L13.5,7 Z M17.5,7 C17.7761424,7 18,7.22385763 18,7.5 C18,7.77614237 17.7761424,8 17.5,8 L15.5,8 C15.2238576,8 15,7.77614237 15,7.5 C15,7.22385763 15.2238576,7 15.5,7 L17.5,7 Z" id="citation" fill="#666666"></path>
    </g>
</svg>
